src/assets/img/icons/duotone-icons/General/Lock.svg

<?xml version="1.0" encoding="UTF-8"?>
<svg width="24px" height="24px" viewBox="0 0 24 24" version="1.1" xmlns="http://www.w3.org/2000/svg" xmlns:xlink="http://www.w3.org/1999/xlink">
    <!-- Generator: Sketch 52.2 (67145) - http://www.bohemiancoding.com/sketch -->
    <title>Stockholm-icons / General / Lock</title>
    <desc>Created with Sketch.</desc>
    <defs>
        <polygon id="path-1" points="0 0 24 0 24 24 0 24"></polygon>
    </defs>
    <g id="Stockholm-icons-/-General-/-Lock" stroke="none" stroke-width="1" fill="none" fill-rule="evenodd">
        <mask id="mask-2" fill="white">
            <use xlink:href="#path-1"></use>
        </mask>
        <g id="bound"></g>
        <path d="M7,10 L7,8 C7,5.23857625 9.23857625,3 12,3 C14.7614237,3 17,5.23857625 17,8 L17,10 L18,10 C19.1045695,10 20,10.8954305 20,12 L20,18 C20,19.1045695 19.1045695,20 18,20 L6,20 C4.8954305,20 4,19.1045695 4,18 L4,12 C4,10.8954305 4.8954305,10 6,10 L7,10 Z M12,5 C10.3431458,5 9,6.34314575 9,8 L9,10 L15,10 L15,8 C15,6.34314575 13.6568542,5 12,5 Z" id="Mask" fill="#335EEA"></path>
    </g>
</svg>

<svg width="24" height="24" viewBox="0 0 24 24" xmlns="http://www.w3.org/2000/svg"><defs><path id="a" d="M0 0h24v24H0z"/></defs><g fill="none" fill-rule="evenodd"><path d="M7 10V8a5 5 0 1110 0v2h1a2 2 0 012 2v6a2 2 0 01-2 2H6a2 2 0 01-2-2v-6a2 2 0 012-2h1zm5-5a3 3 0 00-3 3v2h6V8a3 3 0 00-3-3z" fill="#335EEA"/></g></svg>
